src/bright/hiso font bright_p21-factory reversed.svg

<svg xmlns="http://www.w3.org/2000/svg" width="126" height="126" viewBox="0 0 126 126"><path fill="#000101" d="M0 45v36l72 36 36-18v-72l-36 18v-36l-72 36zm72 3.33l33-16.48v65.29l-6 3v-19.14l-18 9v19.13l-9 4.49v-65.29zm-3-1.83l-33 16.5v-32.69l33-16.46v32.65zm-23.031 44l.031-9 16 8v9l-16.031-8zm-17.969-18l16 8v9l-16-8v-9zm-18-9l16 8v9l-16-8v-9z"/></svg>

<svg xmlns="http://www.w3.org/2000/svg" width="126" height="126"><path fill="#000101" d="M0 45v36l72 36 36-18V27L72 45V9L0 45zm72 3.33l33-16.48v65.29l-6 3V81l-18 9v19.13l-9 4.49V48.33zm-3-1.83L36 63V30.31l33-16.46V46.5zm-23.031 44l.031-9 16 8v9l-16.031-8zM28 72.5l16 8v9l-16-8v-9zm-18-9l16 8v9l-16-8v-9z"/></svg>
